X:95
T: Polka (Band 1), S. 266
N: P0870
O: Lothringen
S: PINCK, Louis: Verklingende Weisen, Bd 1, Metz 1928]
R: Tanzlied]
M: 2/4
L: 1/16
K: F
 | f2A2c2F2 | E2A2G2G2 |
B2E2G2C2 | E2F2A2zA |
f2A2c2F2 | E2A2G2G2 |
d3cB2E2 | F2FFF2z2

@@@ Tune index: 7645
